gama.ui.shared/icons_svg/light/navigator/navigator.new2.svg

<svg height="25" viewBox="-349.472 -3710.75 25 25" width="25" xmlns="http://www.w3.org/2000/svg"><g fill="none"><path d="m-345.13236-3710.25h16.32c2.12076 0 3.84 1.7192 3.84 3.84v16.32c0 2.1208-1.71924 3.84-3.84 3.84h-16.32c-2.12077 0-3.84-1.7192-3.84-3.84v-16.32c0-2.1208 1.71923-3.84 3.84-3.84z" fill="#fff"/><path d="m-345.13236-3710.25h16.32c2.12076 0 3.84 1.7192 3.84 3.84v16.32c0 2.1208-1.71924 3.84-3.84 3.84h-16.32c-2.12077 0-3.84-1.7192-3.84-3.84v-16.32c0-2.1208 1.71923-3.84 3.84-3.84z" stroke="#000" stroke-linecap="round" stroke-linejoin="round" stroke-width=".25"/><path d="m-331.63903-3703.5833h2.22223c.24546 0 .44444.199.44444.4443 0 .2456-.19898.4446-.44444.4446h-2.22223v2.2222c0 .2454-.19897.4444-.44444.4444-.24546 0-.44443-.199-.44443-.4444v-2.2222h-2.22224c-.24546 0-.44446-.199-.44446-.4446 0-.2453.199-.4443.44446-.4443h2.22224v-2.2223c0-.2454.19897-.4444.44443-.4444.24547 0 .44444.199.44444.4444zm1.77778 4.8889c0-.2456.19899-.4446.44445-.4446s.44444.199.44444.4446v6.2222c0 1.2272-.99494 2.2222-2.22224 2.2222h-11.55554c-1.2273 0-2.22222-.995-2.22222-2.2222v-11.5556c0-1.2272.99492-2.2222 2.22222-2.2222h6.22224c.24545 0 .44443.199.44443.4444 0 .2456-.19898.4446-.44443.4446h-6.22224c-.73636 0-1.33333.597-1.33333 1.3332v11.5556c0 .7362.59697 1.3332 1.33333 1.3332h11.55554c.7364 0 1.33335-.597 1.33335-1.3332z" fill="#5c76a2"/></g></svg>

<?xml version="1.0" encoding="UTF-8" standalone="no"?>
<!DOCTYPE svg PUBLIC "-//W3C//DTD SVG 1.1//EN" "http://www.w3.org/Graphics/SVG/1.1/DTD/svg11.dtd">
<svg version="1.1" xmlns="http://www.w3.org/2000/svg" xmlns:xl="http://www.w3.org/1999/xlink" xmlns:dc="http://purl.org/dc/elements/1.1/" viewBox="-349.47236 -3710.75 25 25" width="25" height="25">
  <defs/>
  <g id="SOURCES" stroke-dasharray="none" fill="none" stroke="none" fill-opacity="1" stroke-opacity="1">
    <title>SOURCES</title>
    <g id="SOURCES_Calque_1">
      <title>Calque 1</title>
      <g id="Graphic_6398">
        <title>views/view.other</title>
        <path d="M -345.13236 -3710.25 L -328.81236 -3710.25 C -326.6916 -3710.25 -324.97236 -3708.5308 -324.97236 -3706.41 L -324.97236 -3690.09 C -324.97236 -3687.9692 -326.6916 -3686.25 -328.81236 -3686.25 L -345.13236 -3686.25 C -347.25313 -3686.25 -348.97236 -3687.9692 -348.97236 -3690.09 L -348.97236 -3706.41 C -348.97236 -3708.5308 -347.25313 -3710.25 -345.13236 -3710.25 Z" fill="white"/>
        <path d="M -345.13236 -3710.25 L -328.81236 -3710.25 C -326.6916 -3710.25 -324.97236 -3708.5308 -324.97236 -3706.41 L -324.97236 -3690.09 C -324.97236 -3687.9692 -326.6916 -3686.25 -328.81236 -3686.25 L -345.13236 -3686.25 C -347.25313 -3686.25 -348.97236 -3687.9692 -348.97236 -3690.09 L -348.97236 -3706.41 C -348.97236 -3708.5308 -347.25313 -3710.25 -345.13236 -3710.25 Z" stroke="black" stroke-linecap="round" stroke-linejoin="round" stroke-width=".25"/>
      </g>
      <g id="Graphic_6397">
        <path d="M -331.63903 -3703.5833 L -329.4168 -3703.5833 C -329.17134 -3703.5833 -328.97236 -3703.3843 -328.97236 -3703.139 C -328.97236 -3702.8934 -329.17134 -3702.6944 -329.4168 -3702.6944 L -331.63903 -3702.6944 L -331.63903 -3700.4722 C -331.63903 -3700.2268 -331.838 -3700.0278 -332.08347 -3700.0278 C -332.32893 -3700.0278 -332.5279 -3700.2268 -332.5279 -3700.4722 L -332.5279 -3702.6944 L -334.75014 -3702.6944 C -334.9956 -3702.6944 -335.1946 -3702.8934 -335.1946 -3703.139 C -335.1946 -3703.3843 -334.9956 -3703.5833 -334.75014 -3703.5833 L -332.5279 -3703.5833 L -332.5279 -3705.8056 C -332.5279 -3706.051 -332.32893 -3706.25 -332.08347 -3706.25 C -331.838 -3706.25 -331.63903 -3706.051 -331.63903 -3705.8056 Z M -329.86125 -3698.6944 C -329.86125 -3698.94 -329.66226 -3699.139 -329.4168 -3699.139 C -329.17134 -3699.139 -328.97236 -3698.94 -328.97236 -3698.6944 L -328.97236 -3692.4722 C -328.97236 -3691.245 -329.9673 -3690.25 -331.1946 -3690.25 L -342.75014 -3690.25 C -343.97744 -3690.25 -344.97236 -3691.245 -344.97236 -3692.4722 L -344.97236 -3704.0278 C -344.97236 -3705.255 -343.97744 -3706.25 -342.75014 -3706.25 L -336.5279 -3706.25 C -336.28245 -3706.25 -336.08347 -3706.051 -336.08347 -3705.8056 C -336.08347 -3705.56 -336.28245 -3705.361 -336.5279 -3705.361 L -342.75014 -3705.361 C -343.4865 -3705.361 -344.08347 -3704.764 -344.08347 -3704.0278 L -344.08347 -3692.4722 C -344.08347 -3691.736 -343.4865 -3691.139 -342.75014 -3691.139 L -331.1946 -3691.139 C -330.4582 -3691.139 -329.86125 -3691.736 -329.86125 -3692.4722 Z" fill="#5c76a2"/>
      </g>
    </g>
  </g>
</svg>
